img/icons/financial/bank.svg

<svg xmlns="http://www.w3.org/2000/svg" viewBox="0 0 48 48"><path d="M48 14V8.29L24 0 0 8.29V14h6v24H5a5 5 0 00-5 5v5h48v-5a5 5 0 00-5-5h-1V14zM2 12V9.71l22-7.59 22 7.59V12H2zm18 26h-6V14h6zm2-24h4v24h-4zm6 0h6v24h-6zM8 14h4v24H8zm35 26a3 3 0 013 3v3H2v-3a3 3 0 013-3h38zm-3-2h-4V14h4z" fill="#231f20" data-name="Layer 2"/></svg>

<svg xmlns="http://www.w3.org/2000/svg" viewBox="0 0 48 48"><defs><style>.cls-1{fill:#231f20;}</style></defs><title>Bank</title><g id="Layer_2" data-name="Layer 2"><g id="Icons"><g id="Shopping"><path id="Bank" class="cls-1" d="M48,14V8.29L24,0,0,8.29V14H6V38H5a5,5,0,0,0-5,5v5H48V43a5,5,0,0,0-5-5H42V14ZM2,12V9.71L24,2.12,46,9.71V12H2ZM20,38H14V14h6Zm2-24h4V38H22Zm6,0h6V38H28ZM8,14h4V38H8ZM43,40a3,3,0,0,1,3,3v3H2V43a3,3,0,0,1,3-3H43Zm-3-2H36V14h4Z"/></g></g></g></svg>
